X:1
T:Title
%%score { ( 1 3 ) | 2 }
L:1/8
M:4/4
K:F
V:1 treble nm="Grand Piano"
V:3 treble 
V:2 bass 
V:1
 z4 z2[Q:1/4=100] C2 | F3 F E2 F2 | G2 [=B,FG]2 [CEG]2 [CEG]2 | [CFc]3 [G,=B,F] [CFA]2 [_B,EG]2 | %4
[M:3/4] F6 |[M:1/4] C2 |[M:4/4] F3 F E2 F2 | G2 [FG]2 [EG]2 G2 | c3 c =B2 B2 |[M:3/4] [Ec]6 | %10
[M:1/4] E2 |[M:4/4] E2 F2 G2 F2 | [Ec]3 [EB] [EG]2 E2 | F3 G A2 =B2 |[M:3/4] c6 |[M:1/4] c2 | %16
[M:4/4] f3 e d2 c2 | B2 [Ec]2 [FA]2 [Fd]2 | [Fc]3 [CF] [DF]2 z B, |[M:3/4] F6 |] %20
V:2
 z4 z2 [F,A,]2 | [F,A,C]3 [F,A,C] [G,B,C]2 [F,A,C]2 | [E,G,C]2 D,2 C,2 B,,2 | A,,3 D, C,2 C,2 | %4
[M:3/4] [F,A,]6 |[M:1/4] [F,A,]2 |[M:4/4] [F,A,C]3 [F,A,C] [G,B,C]2 [F,A,C]2 | %7
 [E,G,C]2 [D,C]2 [C,C]2[K:treble] [B,CE]2 | [A,CF]3 [A,CF] [G,DF]2 [G,DF]2 | %9
[M:3/4][K:bass] [C,C]6 |[M:1/4] [C,C]2 |[M:4/4] [C,B,C]2 [C,A,C]2 [E,B,C]2 [F,A,C]2 | %12
 [C,C]3 [C,C] [C,C]2 E,2 | F,3 G, A,2 =B,2 |[M:3/4][K:treble] C6 |[M:1/4] [B,CE]2 | %16
[M:4/4] [A,CF]3 [A,CF] [B,DF]2 [A,_EF]2 | [G,DF]2[K:bass] [C,C]2 [F,C]2 [C,_A,]2 | %18
 [C,A,]3 [C,A,] [C,B,]2 .[C,C]2 |[M:3/4] [F,A,C]6 |] %20
V:3
 x8 | x8 | x8 | x8 |[M:3/4] x6 |[M:1/4] x2 |[M:4/4] x8 | x8 | x8 |[M:3/4] x6 |[M:1/4] x2 | %11
[M:4/4] x8 | x8 | x8 |[M:3/4] x6 |[M:1/4] x2 |[M:4/4] x8 | x8 | z4 z2 E2 |[M:3/4] x6 |] %20

